packages/ui-solid/icons/cancel_28.svg

<svg width="28" height="28" viewBox="0 0 28 28" fill="none" xmlns="http://www.w3.org/2000/svg">
<path fill-rule="evenodd" clip-rule="evenodd" d="M5.30555 5.23135C5.69348 4.83825 6.32663 4.83405 6.71973 5.22198L14.0019 12.4082L21.284 5.22198C21.6771 4.83405 22.3103 4.83825 22.6982 5.23135C23.0861 5.62445 23.0819 6.2576 22.6888 6.64553L15.4256 13.8132L22.6888 20.9808C23.0819 21.3687 23.0861 22.0019 22.6982 22.395C22.3103 22.7881 21.6771 22.7923 21.284 22.4044L14.0019 15.2181L6.71973 22.4044C6.32663 22.7923 5.69348 22.7881 5.30555 22.395C4.91762 22.0019 4.92182 21.3687 5.31492 20.9808L12.5782 13.8132L5.31492 6.64553C4.92182 6.2576 4.91762 5.62445 5.30555 5.23135Z" fill="#007AFF"/>
</svg>

<svg xmlns="http://www.w3.org/2000/svg" width="28" height="28" fill="none"><path fill="currentColor" fill-rule="evenodd" d="M5.306 5.231a1 1 0 0 1 1.414-.009l7.282 7.186 7.282-7.186a1 1 0 0 1 1.405 1.424l-7.263 7.167 7.263 7.168a1 1 0 0 1-1.405 1.423l-7.282-7.186-7.282 7.186a1 1 0 0 1-1.405-1.423l7.263-7.168-7.263-7.167a1 1 0 0 1-.01-1.415" clip-rule="evenodd"/></svg>
